<?xml version="1.0" encoding="UTF-8"?>
<map version="1.10" tiledversion="1.11.2" orientation="orthogonal" renderorder="right-down" width="30" height="17" tilewidth="32" tileheight="32" infinite="0" nextlayerid="7" nextobjectid="16">
 <editorsettings>
  <export target="../hub.json" format="json"/>
 </editorsettings>
 <layer id="1" name="Tile Layer 1" width="30" height="17">
  <data encoding="csv">
0,0,0,0,0,0,0,0,0,0,0,0,0,0,0,0,0,0,0,0,0,0,0,0,0,0,0,0,0,0,
0,0,0,0,0,0,0,0,0,0,0,0,0,0,0,0,0,0,0,0,0,0,0,0,0,0,0,0,0,0,
0,0,0,0,0,0,0,0,0,0,0,0,0,0,0,0,0,0,0,0,0,0,0,0,0,0,0,0,0,0,
0,0,0,0,0,0,0,0,0,0,0,0,0,0,0,0,0,0,0,0,0,0,0,0,0,0,0,0,0,0,
0,0,0,0,0,0,0,0,0,0,0,0,0,0,0,0,0,0,0,0,0,0,0,0,0,0,0,0,0,0,
0,0,0,0,0,0,0,0,0,0,0,0,0,0,0,0,0,0,0,0,0,0,0,0,0,0,0,0,0,0,
0,0,0,0,0,0,0,0,0,0,0,0,0,0,0,0,0,0,0,0,0,0,0,0,0,0,0,0,0,0,
0,0,0,0,0,0,0,0,0,0,0,0,0,0,0,0,0,0,0,0,0,0,0,0,0,0,0,0,0,0,
0,0,0,0,0,0,0,0,0,0,0,0,0,0,0,0,0,0,0,0,0,0,0,0,0,0,0,0,0,0,
0,0,0,0,0,0,0,0,0,0,0,0,0,0,0,0,0,0,0,0,0,0,0,0,0,0,0,0,0,0,
0,0,0,0,0,0,0,0,0,0,0,0,0,0,0,0,0,0,0,0,0,0,0,0,0,0,0,0,0,0,
0,0,0,0,0,0,0,0,0,0,0,0,0,0,0,0,0,0,0,0,0,0,0,0,0,0,0,0,0,0,
0,0,0,0,0,0,0,0,0,0,0,0,0,0,0,0,0,0,0,0,0,0,0,0,0,0,0,0,0,0,
0,0,0,0,0,0,0,0,0,0,0,0,0,0,0,0,0,0,0,0,0,0,0,0,0,0,0,0,0,0,
0,0,0,0,0,0,0,0,0,0,0,0,0,0,0,0,0,0,0,0,0,0,0,0,0,0,0,0,0,0,
0,0,0,0,0,0,0,0,0,0,0,0,0,0,0,0,0,0,0,0,0,0,0,0,0,0,0,0,0,0,
0,0,0,0,0,0,0,0,0,0,0,0,0,0,0,0,0,0,0,0,0,0,0,0,0,0,0,0,0,0
</data>
 </layer>
 <imagelayer id="2" name="Image Layer 1">
  <image source="../hallway.png" width="960" height="540"/>
 </imagelayer>
 <objectgroup id="4" name="Collisions">
  <object id="8" name="sdsd" x="2.33333" y="5" width="14.3333" height="533.333">
   <properties>
    <property name="collision" type="bool" value="true"/>
   </properties>
  </object>
  <object id="10" x="19.3333" y="4" width="927.333" height="20.6667">
   <properties>
    <property name="collision" type="bool" value="true"/>
   </properties>
  </object>
  <object id="11" x="945.333" y="2" width="10" height="537.333">
   <properties>
    <property name="collision" type="bool" value="true"/>
   </properties>
  </object>
  <object id="14" x="34.6667" y="488" width="908.667" height="48">
   <properties>
    <property name="collision" type="bool" value="true"/>
   </properties>
  </object>
 </objectgroup>
 <imagelayer id="6" name="Image Layer 2" offsetx="33.3333" offsety="42.6667">
  <image source="../Sprite-0014.aseprite" width="32" height="48"/>
 </imagelayer>
 <objectgroup id="5" name="interactables" visible="0">
  <object id="15" x="38.6667" y="65.3333" width="888" height="409.333">
   <properties>
    <property name="id" value="mainFloor"/>
    <property name="type" value="Floor"/>
   </properties>
  </object>
 </objectgroup>
</map>
